X: 595
T: Missa In semidupl. maj. (I) Amen Gloria
C: Giovanni Perluigi da Palestrina
L: 1/4
M: 4/2
N: Derived from Gloria_73_i.krn
Q: "Gloria"
V: 1 clef=treble
V: 2 clef=treble
V: 3 clef=treble-8
V: 4 clef=treble-8
V: 5 clef=bass
K: F
[V:1] z4F4 | 
[V:2] C4D4 | 
[V:3] z8 | 
[V:4] z8 | 
[V:5] z8 | 
[V:1] G4A4 | 
[V:2] E4F4 | 
[V:3] z8 | 
[V:4] z4F4 | 
[V:5] z8 | 
[V:1] B4A4 | 
[V:2] E2D2CDEF | 
[V:3] z8 | 
[V:4] G4A4 | 
[V:5] z8 | 
[V:1] F2G4F2- | 
[V:2] D4C4- | 
[V:3] z8 | 
[V:4] B4A4 | 
[V:5] z8 | 
[V:1] F2E2A4 | 
[V:2] C4A,4 | 
[V:3] z4F4 | 
[V:4] G4FGAB | 
[V:5] C,4D,4 | 
[V:1] G4F4- | 
[V:2] z2C2>B,2C2 | 
[V:3] G4A4 | 
[V:4] c2C2z2F2- | 
[V:5] E,4F,4 | 
[V:1] F8 | 
[V:2] D4z2C2 | 
[V:3] B4A4 | 
[V:4] FEDEFGA2 | 
[V:5] B,,2>C,2D,E,F,2- | 
[V:1] z2G2A2B2 | 
[V:2] D2E2F2D2 | 
[V:3] G4F4 | 
[V:4] B2cGd4 | 
[V:5] F,2E,2D,4 | 
[V:1] c4C2D2 | 
[V:2] E2G2>F2F2- | 
[V:3] E4F4 | 
[V:4] z2G2A2B2 | 
[V:5] C,2>B,,2A,,2D,2 | 
[V:1] E2>F2G4 | 
[V:2] F2EDE4 | 
[V:3] G8 | 
[V:4] c8 | 
[V:5] C,8 | 
[V:1] A8- | 
[V:2] F8- | 
[V:3] F8- | 
[V:4] c8- | 
[V:5] F,,8- | 
[V:1] A8 |]  
[V:2] F8 |]  
[V:3] F8 |]  
[V:4] c8 |]  
[V:5] F,,8 |]  

